;FLAVOR:Marlin
;TIME:11070
;Filament used: 42.384m
;Layer height: 0.3
;MINX:55.377
;MINY:44.676
;MINZ:0.2
;MAXX:188.15
;MAXY:140.976
;MAXZ:45.77
;TARGET_MACHINE.NAME:Anycubic Vyper
;POSTPROCESSED
;  [PauseAtHeight]
;  [PauseAtHeight]
;Generated with Cura_SteamEngine 5.11.0
M140 S65
M105
M190 S65
M104 S205
M105
M109 S205
G21 ;metric values
G90 ;absolute positioning
M82 ;set extruder to absolute mode
M107 ;start with the fan off
G28 X0 Y0 ;move X/Y to min endstops
M300 S1318 P266
G28 Z0 ;move Z to min endstops
G0 Z0.2
G92 E0 ;zero the extruded length
G1 X40 E25 F400 ; Extrude 25mm of filament in a 4cm line. Reduce speed (F) if you have a nozzle smaller than 0.4mm!
G92 E0 ;zero the extruded length again
G1 E-1 F500 ; Retract a little
G1 X80 F4000 ; Quickly wipe away from the filament line
M117 ; Printing…
G5
M82 ;absolute extrusion mode
G92 E0
G92 E0
G1 F1500 E-6.5
;LAYER_COUNT:103
;LAYER:0
M107
G0 F3600 X56.958 Y52.088 Z0.3
;TYPE:SKIRT
G1 F1500 E0
G1 F3000 X57.818 Y51.159 E0.06316
G1 X58.564 Y50.405 E0.11608
G1 X60.681 Y48.623 E0.25413
G1 X62.656 Y46.864 E0.38608
G1 X63.672 Y45.93 E0.45493
G1 X64.246 Y45.51 E0.49041
G1 X64.809 Y45.196 E0.52258
G1 X65.407 Y44.954 E0.55476
G1 X66.04 Y44.786 E0.58743
G1 X67.011 Y44.676 E0.63619
G1 X182.243 Y44.676 E6.38514
G1 X183.015 Y44.687 E6.42365
G1 X183.658 Y44.736 E6.45583
G1 X184.29 Y44.864 E6.488
G1 X184.901 Y45.07 E6.52017
G1 X185.482 Y45.349 E6.55232
G1 X186.024 Y45.698 E6.58448
G1 X186.518 Y46.112 E6.61664
G1 X186.958 Y46.584 E6.64883
G1 X187.336 Y47.106 E6.68099
G1 X187.646 Y47.671 E6.71314
G1 X187.884 Y48.27 E6.74529
G1 X188.046 Y48.894 E6.77746
G1 X188.15 Y49.84 E6.82494
G1 X188.15 Y135.112 E11.07918
G1 X188.14 Y135.839 E11.11545
G1 X188.091 Y136.481 E11.14757
G1 X187.963 Y137.113 E11.17974
G1 X187.758 Y137.724 E11.2119
G1 X187.478 Y138.305 E11.24407
G1 X187.129 Y138.847 E11.27623
G1 X186.716 Y139.342 E11.3084
G1 X186.245 Y139.782 E11.34055
G1 X185.722 Y140.16 E11.37275
G1 X185.157 Y140.47 E11.4049
G1 X184.558 Y140.709 E11.43707
G1 X183.935 Y140.871 E11.46919
G1 X182.987 Y140.976 E11.51678
G1 X67.683 Y140.975 E17.26932
G1 X66.985 Y140.965 E17.30414
G1 X66.342 Y140.916 E17.33631
G1 X65.71 Y140.788 E17.36849
G1 X65.099 Y140.582 E17.40065
G1 X64.518 Y140.303 E17.43281
G1 X63.976 Y139.954 E17.46497
G1 X63.482 Y139.54 E17.49713
G1 X63.042 Y139.068 E17.52932
G1 X62.664 Y138.546 E17.56147
G1 X62.354 Y137.981 E17.59363
G1 X62.116 Y137.382 E17.62578
G1 X61.954 Y136.758 E17.65795
G1 X61.85 Y135.806 E17.70572
G1 X61.85 Y92.509 E19.86582
G1 X61.812 Y89.834 E19.99929
G1 X61.699 Y87.161 E20.13277
G1 X61.509 Y84.486 E20.26656
G1 X61.242 Y81.795 E20.40147
G1 X60.903 Y79.146 E20.53471
G1 X60.485 Y76.482 E20.66924
G1 X60.003 Y73.891 E20.80073
G1 X59.428 Y71.22 E20.93704
G1 X58.798 Y68.65 E21.06905
G1 X58.081 Y66.046 E21.2038
G1 X57.303 Y63.503 E21.33647
G1 X55.933 Y59.492 E21.54793
G1 X55.562 Y58.195 E21.61524
G1 X55.568 Y58.193 E21.61555
G1 X55.449 Y57.699 E21.6409
G1 X55.377 Y57.058 E21.67308
G1 X55.384 Y56.413 E21.70526
G1 X55.484 Y55.68 E21.74217
G1 X55.75 Y54.712 E21.79226
G1 X56.005 Y53.875 E21.83591
G1 X56.232 Y53.271 E21.8681
G1 X56.531 Y52.701 E21.90021
G1 X56.958 Y52.088 E21.93748
G1 F1500 E15.43748
G0 F3600 X61.145 Y55.498
G1 F1500 E21.93748
G1 F3000 X62.125 Y54.463 E22.0086
G1 X63.475 Y54.085 E22.07854
G1 X64.825 Y54.463 E22.14848
G1 X65.805 Y55.498 E22.21959
G1 X66.15 Y56.681 E22.28107
G1 X66.15 Y56.914 E22.29269
G1 X65.805 Y58.147 E22.35657
G1 X64.828 Y59.124 E22.4255
G1 X63.476 Y59.502 E22.49554
G1 X62.179 Y59.123 E22.56296
G1 X61.146 Y58.09 E22.63584
G1 X60.767 Y56.794 E22.70321
G1 X61.145 Y55.498 E22.77056
G0 F3600 X61.502 Y55.703
G1 F3000 X62.34 Y54.818 E22.83136
G1 X63.475 Y54.5 E22.89017
G1 X64.61 Y54.818 E22.94898
G1 X65.448 Y55.703 E23.00978
G1 X65.75 Y56.738 E23.06357
G1 X65.75 Y56.86 E23.06966
G1 X65.448 Y57.938 E23.12551
G1 X64.619 Y58.767 E23.184
G1 X63.479 Y59.086 E23.24306
G1 X62.39 Y58.768 E23.29966
G1 X61.501 Y57.879 E23.36238
G1 X61.184 Y56.794 E23.41878
G1 X61.502 Y55.703 E23.47547
G0 F3600 X61.859 Y55.907
G1 F3000 X62.554 Y55.173 E23.5259
G1 X63.475 Y54.916 E23.57361
G1 X64.396 Y55.173 E23.62131
G1 X65.091 Y55.908 E23.67178
G1 X65.35 Y56.794 E23.71783
G1 X65.35 Y56.805 E23.71838
G1 X65.091 Y57.729 E23.76625
G1 X64.409 Y58.411 E23.81437
G1 X63.482 Y58.67 E23.86239
G1 X62.601 Y58.413 E23.90818
G1 X61.856 Y57.668 E23.96074
G1 X61.601 Y56.794 E24.00616
G1 X61.859 Y55.907 E24.05225
G1 F1500 E17.55225
G0 F3600 X80.195 Y64.201
G1 F1500 E24.05225
G1 F3000 X81.175 Y63.166 E24.12336
G1 X82.525 Y62.787 E24.19332
G1 X82.607 Y62.811 E24.19758
G1 X82.717 Y62.812 E24.20307
G1 X83.201 Y62.676 E24.22815
G1 X83.439 Y62.676 E24.24002
G1 X84.67 Y63.02 E24.30379
G1 X85.65 Y64.055 E24.3749
G1 X85.668 Y64.118 E24.37817
G1 X85.738 Y64.222 E24.38443
G1 X85.86 Y64.263 E24.39085
G1 X85.928 Y64.263 E24.39424
G1 X86.047 Y64.224 E24.40049
G1 X86.12 Y64.118 E24.40691
G1 X86.138 Y64.055 E24.41018
G1 X87.118 Y63.02 E24.48129
G1 X88.349 Y62.676 E24.54506
G1 X88.587 Y62.676 E24.55693
G1 X89.818 Y63.02 E24.6207
G1 X90.286 Y63.513 E24.65461
G1 X90.396 Y63.572 E24.66084
G1 X90.52 Y63.554 E24.66709
G1 X90.576 Y63.513 E24.67055
G1 X91.031 Y63.033 E24.70355
G1 X92.307 Y62.676 E24.76965
G1 X92.439 Y62.676 E24.77624
G1 X93.715 Y63.033 E24.84234
G1 X94.712 Y64.083 E24.91458
G1 X94.822 Y64.142 E24.92081
G1 X94.946 Y64.124 E24.92706
G1 X95.002 Y64.083 E24.93052
G1 X96.011 Y63.02 E25.00364
G1 X97.242 Y62.676 E25.06741
G1 X97.48 Y62.676 E25.07928
G1 X98.711 Y63.02 E25.14305
G1 X99.265 Y63.603 E25.18318
G1 X99.375 Y63.662 E25.1894
G1 X99.499 Y63.644 E25.19565
G1 X99.555 Y63.603 E25.19912
G1 X100.108 Y63.02 E25.23921
G1 X101.339 Y62.676 E25.30297
G1 X101.577 Y62.676 E25.31485
G1 X102.808 Y63.02 E25.37862
G1 X103.49 Y63.739 E25.42806
G1 X103.6 Y63.798 E25.43428
G1 X103.724 Y63.78 E25.44054
G1 X103.78 Y63.739 E25.444
G1 X104.45 Y63.033 E25.49256
G1 X105.726 Y62.676 E25.55866
G1 X105.858 Y62.676 E25.56525
G1 X107.134 Y63.033 E25.63135
G1 X107.8 Y63.734 E25.67959
G1 X107.91 Y63.793 E25.68582
G1 X108.034 Y63.775 E25.69207
G1 X108.09 Y63.734 E25.69553
G1 X108.768 Y63.02 E25.74466
G1 X109.999 Y62.676 E25.80842
G1 X110.237 Y62.676 E25.8203
G1 X111.468 Y63.02 E25.88407
G1 X111.733 Y63.298 E25.90323
G1 X111.843 Y63.357 E25.90945
G1 X111.967 Y63.339 E25.91571
G1 X112.023 Y63.298 E25.91917
G1 X112.287 Y63.02 E25.9383
G1 X113.518 Y62.676 E26.00206
G1 X113.756 Y62.676 E26.01394
G1 X114.987 Y63.02 E26.0777
G1 X115.967 Y64.055 E26.14882
G1 X116.345 Y65.353 E26.21626
G1 X115.967 Y66.704 E26.28625
G1 X114.99 Y67.681 E26.35519
G1 X113.638 Y68.059 E26.42522
G1 X112.342 Y67.68 E26.49259
G1 X112.048 Y67.388 E26.51326
G1 X111.936 Y67.332 E26.51951
G1 X111.766 Y67.388 E26.52844
G1 X111.471 Y67.68 E26.54915
G1 X110.119 Y68.059 E26.6192
G1 X108.823 Y67.68 E26.68657
G1 X108.115 Y66.973 E26.73648
G1 X108.004 Y66.917 E26.74269
G1 X107.833 Y66.973 E26.75166
G1 X107.137 Y67.667 E26.8007
G1 X105.793 Y68.044 E26.87034
G1 X104.505 Y67.667 E26.93729
G1 X103.806 Y66.969 E26.98658
G1 X103.695 Y66.913 E26.99278
G1 X103.524 Y66.969 E27.00176
G1 X102.811 Y67.68 E27.05199
G1 X101.459 Y68.059 E27.12204
G1 X100.163 Y67.68 E27.18941
G1 X99.58 Y67.098 E27.23051
G1 X99.469 Y67.042 E27.23671
G1 X99.298 Y67.098 E27.24569
G1 X98.714 Y67.68 E27.28682
G1 X97.362 Y68.059 E27.35687
G1 X96.065 Y67.68 E27.42429
G1 X95.027 Y66.643 E27.49749
G1 X94.916 Y66.586 E27.50371
G1 X94.745 Y66.643 E27.51271
G1 X93.719 Y67.668 E27.58506
G1 X92.374 Y68.044 E27.65474
G1 X91.086 Y67.667 E27.72169
G1 X90.601 Y67.183 E27.75588
G1 X90.49 Y67.127 E27.76208
G1 X90.319 Y67.183 E27.77105
G1 X89.821 Y67.68 E27.80616
G1 X88.469 Y68.059 E27.87621
G1 X87.172 Y67.68 E27.94362
G1 X86.139 Y66.647 E28.01651
G1 X86.128 Y66.609 E28.01848
G1 X86.057 Y66.506 E28.02472
G1 X85.936 Y66.465 E28.03109
G1 X85.868 Y66.465 E28.03449
G1 X85.749 Y66.504 E28.04073
G1 X85.675 Y66.611 E28.04722
G1 X85.649 Y66.705 E28.05209
G1 X84.672 Y67.682 E28.12102
G1 X84.128 Y67.834 E28.1492
G1 X84.041 Y67.885 E28.15423
G1 X83.87 Y68.054 E28.16623
G1 X82.526 Y68.431 E28.23587
G1 X81.237 Y68.054 E28.30287
G1 X80.209 Y67.026 E28.3754
G1 X79.85 Y65.799 E28.43918
G1 X79.85 Y65.384 E28.45989
G1 X80.195 Y64.201 E28.52137
G0 F3600 X80.552 Y64.406
G1 F3000 X81.39 Y63.521 E28.58217
G1 X82.537 Y63.199 E28.64161
G1 X82.713 Y63.217 E28.65044
G1 X82.825 Y63.197 E28.65611
G1 X83.256 Y63.076 E28.67845
G1 X83.385 Y63.076 E28.68488
G1 X84.455 Y63.375 E28.74031
G1 X85.305 Y64.274 E28.80203
G1 X85.381 Y64.424 E28.81042
G1 X85.542 Y64.572 E28.82133
G1 X85.745 Y64.652 E28.83222
G1 X85.86 Y64.663 E28.83798
G1 X85.928 Y64.663 E28.84138
G1 X86.143 Y64.623 E28.85229
G1 X86.329 Y64.51 E28.86314
G1 X86.462 Y64.337 E28.87403
G1 X86.491 Y64.265 E28.8779
G1 X87.333 Y63.375 E28.93903
G1 X88.403 Y63.076 E28.99446
G1 X88.533 Y63.076 E29.00094
G1 X89.605 Y63.376 E29.05648
G1 X89.996 Y63.788 E29.08482
G1 X90.172 Y63.916 E29.09567
G1 X90.383 Y63.973 E29.10658
G1 X90.6 Y63.951 E29.11746
G1 X90.866 Y63.788 E29.13302
G1 X91.245 Y63.389 E29.16048
G1 X92.361 Y63.076 E29.2183
G1 X92.385 Y63.076 E29.2195
G1 X93.502 Y63.389 E29.27738
G1 X94.422 Y64.358 E29.34404
G1 X94.598 Y64.486 E29.3549
G1 X94.809 Y64.543 E29.3658
G1 X95.026 Y64.521 E29.37668
G1 X95.292 Y64.358 E29.39225
G1 X96.224 Y63.376 E29.45979
G1 X97.296 Y63.076 E29.51533
G1 X97.426 Y63.076 E29.52181
G1 X98.498 Y63.376 E29.57735
G1 X98.975 Y63.878 E29.6119
G1 X99.152 Y64.007 E29.62282
G1 X99.362 Y64.063 E29.63367
G1 X99.579 Y64.041 E29.64455
G1 X99.845 Y63.878 E29.66011
G1 X100.322 Y63.376 E29.69466
G1 X101.393 Y63.076 E29.75015
G1 X101.523 Y63.076 E29.75664
G1 X102.594 Y63.376 E29.81213
G1 X103.2 Y64.014 E29.85603
G1 X103.376 Y64.142 E29.86688
G1 X103.587 Y64.199 E29.87779
G1 X103.804 Y64.177 E29.88867
G1 X104.07 Y64.014 E29.90423
G1 X104.664 Y63.389 E29.94725
G1 X105.78 Y63.076 E30.00508
G1 X105.804 Y63.076 E30.00627
G1 X106.921 Y63.389 E30.06415
G1 X107.51 Y64.009 E30.10681
G1 X107.687 Y64.137 E30.11771
G1 X107.897 Y64.194 E30.12857
G1 X108.114 Y64.172 E30.13945
G1 X108.38 Y64.009 E30.15501
G1 X108.981 Y63.376 E30.19856
G1 X110.053 Y63.076 E30.2541
G1 X110.183 Y63.076 E30.26058
G1 X111.255 Y63.376 E30.31612
G1 X111.444 Y63.574 E30.32978
G1 X111.62 Y63.702 E30.34063
G1 X111.831 Y63.758 E30.35152
G1 X112.048 Y63.735 E30.36241
G1 X112.313 Y63.573 E30.37791
G1 X112.5 Y63.376 E30.39146
G1 X113.572 Y63.076 E30.44699
G1 X113.702 Y63.076 E30.45348
G1 X114.772 Y63.375 E30.50891
G1 X115.61 Y64.26 E30.56971
G1 X115.929 Y65.355 E30.62661
G1 X115.61 Y66.495 E30.68567
G1 X114.781 Y67.324 E30.74416
G1 X113.641 Y67.643 E30.80322
G1 X112.552 Y67.325 E30.85982
G1 X112.33 Y67.104 E30.87545
G1 X112.15 Y66.981 E30.88633
G1 X111.938 Y66.931 E30.8972
G1 X111.721 Y66.959 E30.90811
G1 X111.485 Y67.104 E30.92193
G1 X111.264 Y67.323 E30.93745
G1 X110.122 Y67.643 E30.99662
G1 X109.034 Y67.325 E31.05317
G1 X108.398 Y66.69 E31.09801
G1 X108.218 Y66.567 E31.10889
G1 X108.006 Y66.516 E31.11977
G1 X107.79 Y66.544 E31.13063
G1 X107.55 Y66.69 E31.14465
G1 X106.928 Y67.31 E31.18846
G1 X105.796 Y67.628 E31.24712
G1 X104.716 Y67.312 E31.30327
G1 X104.089 Y66.686 E31.34747
G1 X103.909 Y66.563 E31.35834
G1 X103.697 Y66.512 E31.36922
G1 X103.481 Y66.54 E31.38009
G1 X103.241 Y66.686 E31.3941
G1 X102.602 Y67.323 E31.43912
G1 X101.462 Y67.643 E31.49819
G1 X100.374 Y67.325 E31.55474
G1 X99.863 Y66.815 E31.59076
G1 X99.683 Y66.692 E31.60164
G1 X99.471 Y66.641 E31.61252
G1 X99.255 Y66.669 E31.62338
G1 X99.015 Y66.815 E31.6374
G1 X98.505 Y67.323 E31.67331
G1 X97.365 Y67.643 E31.73238
G1 X96.276 Y67.325 E31.78898
G1 X95.31 Y66.36 E31.85711
G1 X95.13 Y66.236 E31.86801
G1 X94.918 Y66.185 E31.87889
G1 X94.702 Y66.213 E31.88976
G1 X94.462 Y66.36 E31.9038
G1 X93.51 Y67.311 E31.97093
G1 X92.377 Y67.628 E32.02963
G1 X91.297 Y67.312 E32.08577
G1 X90.884 Y66.9 E32.11487
G1 X90.704 Y66.777 E32.12575
G1 X90.492 Y66.726 E32.13663
G1 X90.276 Y66.754 E32.14749
G1 X90.036 Y66.9 E32.16151
G1 X89.612 Y67.323 E32.19139
G1 X88.472 Y67.643 E32.25046
G1 X87.383 Y67.325 E32.30706
G1 X86.468 Y66.41 E32.37162
G1 X86.414 Y66.303 E32.3776
G1 X86.253 Y66.156 E32.38847
G1 X86.05 Y66.076 E32.39936
G1 X85.936 Y66.065 E32.40507
G1 X85.868 Y66.065 E32.40847
G1 X85.653 Y66.105 E32.41938
G1 X85.467 Y66.218 E32.43024
G1 X85.334 Y66.391 E32.44112
G1 X85.293 Y66.495 E32.4467
G1 X84.463 Y67.325 E32.50526
G1 X84.02 Y67.449 E32.52821
G1 X83.76 Y67.601 E32.54324
G1 X83.663 Y67.697 E32.55005
G1 X82.529 Y68.015 E32.6088
G1 X81.448 Y67.699 E32.66499
G1 X80.564 Y66.815 E32.72736
G1 X80.25 Y65.741 E32.78319
G1 X80.25 Y65.441 E32.79815
G1 X80.552 Y64.406 E32.85194
G0 F3600 X80.909 Y64.611
G1 F3000 X81.604 Y63.876 E32.90241
G1 X82.569 Y63.605 E32.95242
G1 X82.664 Y63.619 E32.95721
G1 X82.933 Y63.582 E32.97076
G1 X83.31 Y63.476 E32.99029
G1 X83.331 Y63.476 E32.99134
G1 X84.241 Y63.73 E33.03848
G1 X84.973 Y64.504 E33.09163
G1 X85.015 Y64.597 E33.09672
G1 X85.198 Y64.812 E33.1108
G1 X85.433 Y64.967 E33.12485
G1 X85.703 Y65.051 E33.13895
G1 X85.86 Y65.063 E33.14681
G1 X85.928 Y65.063 E33.1502
G1 X86.207 Y65.023 E33.16426
G1 X86.464 Y64.907 E33.17833
G1 X86.679 Y64.724 E33.19242
G1 X86.833 Y64.488 E33.20648
G1 X86.835 Y64.483 E33.20674
G1 X87.547 Y63.73 E33.25845
G1 X88.457 Y63.476 E33.30558
G1 X88.479 Y63.476 E33.30668
G1 X89.391 Y63.731 E33.35392
G1 X89.706 Y64.063 E33.37676
G1 X89.927 Y64.239 E33.39085
G1 X90.188 Y64.345 E33.40491
G1 X90.469 Y64.374 E33.419
G1 X90.746 Y64.324 E33.43304
G1 X90.999 Y64.198 E33.44714
G1 X91.157 Y64.063 E33.45751
G1 X91.46 Y63.744 E33.47946
G1 X92.373 Y63.488 E33.52677
G1 X93.287 Y63.744 E33.57412
G1 X94.132 Y64.634 E33.63535
G1 X94.353 Y64.809 E33.64941
G1 X94.614 Y64.915 E33.66347
G1 X94.895 Y64.944 E33.67756
G1 X95.173 Y64.894 E33.69165
G1 X95.425 Y64.768 E33.70571
G1 X95.582 Y64.633 E33.71604
G1 X96.438 Y63.731 E33.77808
G1 X97.35 Y63.476 E33.82533
G1 X97.372 Y63.476 E33.82642
G1 X98.283 Y63.731 E33.87362
G1 X98.685 Y64.154 E33.90273
G1 X98.906 Y64.329 E33.9168
G1 X99.168 Y64.435 E33.9309
G1 X99.448 Y64.464 E33.94494
G1 X99.726 Y64.414 E33.95903
G1 X99.978 Y64.288 E33.97309
G1 X100.135 Y64.153 E33.98342
G1 X100.536 Y63.731 E34.01246
G1 X101.447 Y63.476 E34.05966
G1 X101.469 Y63.476 E34.06076
G1 X102.379 Y63.73 E34.10789
G1 X102.909 Y64.289 E34.14632
G1 X103.131 Y64.464 E34.16043
G1 X103.392 Y64.571 E34.1745
G1 X103.672 Y64.6 E34.18854
G1 X103.95 Y64.55 E34.20264
G1 X104.203 Y64.424 E34.21674
G1 X104.36 Y64.289 E34.22707
G1 X104.877 Y63.744 E34.26455
G1 X105.792 Y63.488 E34.31195
G1 X106.706 Y63.744 E34.3593
G1 X107.22 Y64.285 E34.39653
G1 X107.441 Y64.46 E34.4106
G1 X107.703 Y64.566 E34.4247
G1 X107.983 Y64.595 E34.43874
G1 X108.261 Y64.545 E34.45283
G1 X108.513 Y64.419 E34.46689
G1 X108.67 Y64.285 E34.47719
G1 X109.197 Y63.73 E34.51537
G1 X110.107 Y63.476 E34.56251
G1 X110.129 Y63.476 E34.5636
G1 X111.04 Y63.731 E34.6108
G1 X111.154 Y63.85 E34.61902
G1 X111.376 Y64.025 E34.63313
G1 X111.637 Y64.131 E34.64718
G1 X111.918 Y64.159 E34.66127
G1 X112.195 Y64.108 E34.67532
G1 X112.447 Y63.982 E34.68938
G1 X112.603 Y63.849 E34.6996
G1 X112.716 Y63.73 E34.70779
G1 X113.626 Y63.476 E34.75493
G1 X113.648 Y63.476 E34.75602
G1 X114.558 Y63.73 E34.80316
G1 X115.253 Y64.464 E34.85359
G1 X115.513 Y65.358 E34.90004
G1 X115.253 Y66.286 E34.94812
G1 X114.571 Y66.968 E34.99624
G1 X113.644 Y67.227 E35.04426
G1 X112.761 Y66.969 E35.09015
G1 X112.612 Y66.821 E35.10063
G1 X112.386 Y66.652 E35.11471
G1 X112.122 Y66.553 E35.12878
G1 X111.84 Y66.532 E35.14289
G1 X111.564 Y66.591 E35.15697
G1 X111.315 Y66.724 E35.17105
