;FLAVOR:Marlin
;TIME:11070
;Filament used: 42.384m
;Layer height: 0.3
;MINX:55.377
;MINY:44.676
;MINZ:0.2
;MAXX:188.15
;MAXY:140.976
;MAXZ:45.77
;TARGET_MACHINE.NAME:Anycubic Vyper
;POSTPROCESSED
;  [PauseAtHeight]
;  [PauseAtHeight]
;Generated with Cura_SteamEngine 5.11.0
M140 S65
M105
M190 S65
M104 S205
M105
M109 S205
G21 ;metric values
G90 ;absolute positioning
M82 ;set extruder to absolute mode
M107 ;start with the fan off
G28 X0 Y0 ;move X/Y to min endstops
M300 S1318 P266
G28 Z0 ;move Z to min endstops
G0 Z0.2
G92 E0 ;zero the extruded length
G1 X40 E25 F400 ; Extrude 25mm of filament in a 4cm line. Reduce speed (F) if you have a nozzle smaller than 0.4mm!
G92 E0 ;zero the extruded length again
G1 E-1 F500 ; Retract a little
G1 X80 F4000 ; Quickly wipe away from the filament line
M117 ; Printing…
G5
M82 ;absolute extrusion mode
G92 E0
G92 E0
G1 F1500 E-6.5


G1 F300 Z15


G1 F9000 X68.208 Y51.121
G1 F300 Z14.9 ; move back down to resume height
G1 F3000 ; restore extrusion feedrate
G92 E1317.72175
;LAYER:33
;TYPE:FILL
;MESH:Body1(3)
G1 F6000 X69.202 Y52.116 E1317.83869
G1 X69.272 Y52.186
G0 F7200 X68.208 Y51.553
G1 F6000 X68.726 Y51.035 E1317.89961
G0 F7200 X71.417 Y52.116
G1 F6000 X72.498 Y51.035 E1318.02672
G0 F7200 X71.894 Y51.036
G1 F6000 X72.974 Y52.116 E1318.15372
G1 X73.044 Y52.186
G0 F7200 X75.189 Y52.116
G1 F6000 X76.269 Y51.035 E1318.28078
G0 F7200 X75.666 Y51.036
G1 F6000 X76.746 Y52.116 E1318.40778
G1 X76.816 Y52.186
G0 F7200 X78.96 Y52.116
G1 F6000 X80.041 Y51.035 E1318.5349
G0 F7200 X79.438 Y51.036
G1 F6000 X80.518 Y52.116 E1318.6619
G1 X80.588 Y52.186
G0 F7200 X82.732 Y52.116
G1 F6000 X83.813 Y51.035 E1318.78902
G0 F7200 X83.209 Y51.036
G1 F6000 X84.289 Y52.116 E1318.91602
G1 X84.359 Y52.186
G0 F7200 X86.504 Y52.116
G1 F6000 X87.584 Y51.035 E1319.04307
G0 F7200 X86.981 Y51.036
G1 F6000 X88.061 Y52.116 E1319.17007
G1 X88.131 Y52.186
G0 F7200 X90.276 Y52.116
G1 F6000 X91.356 Y51.035 E1319.29713
G0 F7200 X90.753 Y51.036
G1 F6000 X91.833 Y52.116 E1319.42413
G1 X91.903 Y52.186
G0 F7200 X94.047 Y52.116
G1 F6000 X95.128 Y51.035 E1319.55125
G0 F7200 X94.525 Y51.036
G1 F6000 X95.604 Y52.116 E1319.67819
G1 X95.674 Y52.186
G0 F7200 X97.819 Y52.116
G1 F6000 X98.899 Y51.035 E1319.80525
G0 F7200 X98.296 Y51.036
G1 F6000 X99.376 Y52.116 E1319.93225
G1 X99.446 Y52.186
G0 F7200 X101.591 Y52.116
G1 F6000 X102.671 Y51.035 E1320.05931
G0 F7200 X102.068 Y51.036
G1 F6000 X103.148 Y52.116 E1320.18631
G1 X103.218 Y52.186
G0 F7200 X105.362 Y52.116
G1 F6000 X106.443 Y51.035 E1320.31342
G0 F7200 X105.84 Y51.036
G1 F6000 X106.919 Y52.116 E1320.44037
G1 X106.989 Y52.186
G0 F7200 X109.134 Y52.116
G1 F6000 X110.215 Y51.035 E1320.56748
G0 F7200 X109.611 Y51.036
G1 F6000 X110.691 Y52.116 E1320.69448
G1 X110.761 Y52.186
G0 F7200 X112.906 Y52.116
G1 F6000 X113.986 Y51.035 E1320.82154
G0 F7200 X113.383 Y51.036
G1 F6000 X114.463 Y52.116 E1320.94854
G1 X114.533 Y52.186
G0 F7200 X116.678 Y52.116
G1 F6000 X117.758 Y51.035 E1321.0756
G0 F7200 X117.155 Y51.036
G1 F6000 X118.235 Y52.116 E1321.2026
G1 X118.305 Y52.186
G0 F7200 X120.449 Y52.116
G1 F6000 X121.53 Y51.035 E1321.32972
G0 F7200 X120.927 Y51.036
G1 F6000 X122.006 Y52.116 E1321.45666
G1 X122.076 Y52.186
G0 F7200 X124.221 Y52.116
G1 F6000 X125.301 Y51.035 E1321.58372
G0 F7200 X124.698 Y51.036
G1 F6000 X125.778 Y52.116 E1321.71072
G1 X125.848 Y52.186
G0 F7200 X127.993 Y52.116
G1 F6000 X129.073 Y51.035 E1321.83777
G0 F7200 X128.47 Y51.036
G1 F6000 X129.55 Y52.116 E1321.96477
G1 X129.62 Y52.186
G0 F7200 X131.764 Y52.116
G1 F6000 X132.845 Y51.035 E1322.09189
G0 F7200 X132.242 Y51.036
G1 F6000 X133.321 Y52.116 E1322.21883
G1 X133.391 Y52.186
G0 F7200 X135.536 Y52.116
G1 F6000 X136.617 Y51.035 E1322.34595
G0 F7200 X136.013 Y51.036
G1 F6000 X137.093 Y52.116 E1322.47295
G1 X137.163 Y52.186
G0 F7200 X139.308 Y52.116
G1 F6000 X140.388 Y51.035 E1322.60001
G0 F7200 X139.785 Y51.036
G1 F6000 X140.865 Y52.116 E1322.72701
G1 X140.935 Y52.186
G0 F7200 X143.08 Y52.116
G1 F6000 X144.16 Y51.035 E1322.85407
G0 F7200 X143.557 Y51.036
G1 F6000 X144.637 Y52.116 E1322.98107
G1 X144.707 Y52.186
G0 F7200 X146.851 Y52.116
G1 F6000 X147.932 Y51.035 E1323.10818
G0 F7200 X147.329 Y51.036
G1 F6000 X148.408 Y52.116 E1323.23512
G1 X148.478 Y52.186
G0 F7200 X150.623 Y52.116
G1 F6000 X151.703 Y51.035 E1323.36218
G0 F7200 X151.1 Y51.036
G1 F6000 X152.18 Y52.116 E1323.48918
G1 X152.25 Y52.186
G0 F7200 X154.395 Y52.116
G1 F6000 X155.475 Y51.035 E1323.61624
G0 F7200 X154.872 Y51.036
G1 F6000 X155.952 Y52.116 E1323.74324
G1 X156.022 Y52.186
G0 F7200 X158.166 Y52.116
G1 F6000 X159.247 Y51.035 E1323.87036
G0 F7200 X158.644 Y51.036
G1 F6000 X159.723 Y52.116 E1323.9973
G1 X159.793 Y52.186
G0 F7200 X161.938 Y52.116
G1 F6000 X163.019 Y51.035 E1324.12442
G0 F7200 X162.415 Y51.036
G1 F6000 X163.495 Y52.116 E1324.25142
G1 X163.565 Y52.186
G0 F7200 X165.71 Y52.116
G1 F6000 X166.79 Y51.035 E1324.37847
G0 F7200 X166.187 Y51.036
G1 F6000 X167.267 Y52.116 E1324.50547
G1 X167.337 Y52.186
G0 F7200 X169.481 Y52.116
G1 F6000 X170.562 Y51.035 E1324.63259
G0 F7200 X169.959 Y51.036
G1 F6000 X171.039 Y52.116 E1324.75959
G1 X171.109 Y52.186
G0 F7200 X173.253 Y52.116
G1 F6000 X174.334 Y51.035 E1324.88671
G0 F7200 X173.73 Y51.036
G1 F6000 X174.81 Y52.116 E1325.01371
G1 X174.88 Y52.186
G0 F7200 X177.025 Y52.116
G1 F6000 X178.105 Y51.035 E1325.14077
G0 F7200 X177.502 Y51.036
G1 F6000 X178.582 Y52.116 E1325.26777
G1 X178.652 Y52.186
G0 F7200 X180.389 Y52.524
G1 F6000 X181.788 Y51.125 E1325.43228
G0 F7200 X181.788 Y51.55
G1 F6000 X181.274 Y51.036 E1325.49272
G0 F7200 X180.71 Y54.244
G1 F6000 X181.788 Y55.322 E1325.61948
G0 F7200 X181.788 Y54.896
G1 F6000 X180.71 Y55.974 E1325.74625
G1 X180.64 Y56.044
G0 F7200 X180.71 Y58.015
G1 F6000 X181.788 Y59.094 E1325.87307
G0 F7200 X181.788 Y58.668
G1 F6000 X180.71 Y59.746 E1325.99984
G1 X180.64 Y59.816
G0 F7200 X180.71 Y61.787
G1 F6000 X181.788 Y62.865 E1326.1266
G0 F7200 X181.788 Y62.44
G1 F6000 X180.71 Y63.517 E1326.25331
G1 X180.64 Y63.587
G0 F7200 X180.71 Y65.559
G1 F6000 X181.788 Y66.637 E1326.38007
G0 F7200 X181.788 Y66.211
G1 F6000 X180.71 Y67.289 E1326.50684
G1 X180.64 Y67.359
G0 F7200 X180.71 Y69.33
G1 F6000 X181.788 Y70.409 E1326.63366
G0 F7200 X181.788 Y69.983
G1 F6000 X180.71 Y71.061 E1326.76042
G1 X180.64 Y71.131
G0 F7200 X180.71 Y73.102
G1 F6000 X181.788 Y74.18 E1326.88719
G0 F7200 X181.788 Y73.755
G1 F6000 X180.71 Y74.832 E1327.01389
G1 X180.64 Y74.902
G0 F7200 X180.71 Y76.874
G1 F6000 X181.788 Y77.952 E1327.14066
G0 F7200 X181.788 Y77.526
G1 F6000 X180.71 Y78.604 E1327.26742
G1 X180.64 Y78.674
G0 F7200 X180.71 Y80.646
G1 F6000 X181.788 Y81.724 E1327.39419
G0 F7200 X181.788 Y81.298
G1 F6000 X180.71 Y82.376 E1327.52095
G1 X180.64 Y82.446
G0 F7200 X180.71 Y84.417
G1 F6000 X181.788 Y85.496 E1327.64778
G0 F7200 X181.788 Y85.07
G1 F6000 X180.71 Y86.148 E1327.77454
G1 X180.64 Y86.218
G0 F7200 X180.71 Y88.189
G1 F6000 X181.788 Y89.267 E1327.90131
G0 F7200 X181.788 Y88.842
G1 F6000 X180.71 Y89.919 E1328.02801
G1 X180.64 Y89.989
G0 F7200 X180.71 Y91.961
G1 F6000 X181.788 Y93.039 E1328.15478
G0 F7200 X181.788 Y92.613
G1 F6000 X180.71 Y93.691 E1328.28154
G1 X180.64 Y93.761
G0 F7200 X180.71 Y95.732
G1 F6000 X181.788 Y96.811 E1328.40836
G0 F7200 X181.788 Y96.385
G1 F6000 X180.71 Y97.463 E1328.53513
G1 X180.64 Y97.533
G0 F7200 X180.71 Y99.504
G1 F6000 X181.788 Y100.582 E1328.66189
G0 F7200 X181.788 Y100.157
G1 F6000 X180.71 Y101.234 E1328.7886
G1 X180.64 Y101.304
G0 F7200 X180.71 Y103.276
G1 F6000 X181.788 Y104.354 E1328.91536
G0 F7200 X181.788 Y103.928
G1 F6000 X180.71 Y105.006 E1329.04213
G1 X180.64 Y105.076
G0 F7200 X180.71 Y107.047
G1 F6000 X181.788 Y108.126 E1329.16895
G0 F7200 X181.788 Y107.7
G1 F6000 X180.71 Y108.778 E1329.29572
G1 X180.64 Y108.848
G0 F7200 X180.71 Y110.819
G1 F6000 X181.788 Y111.898 E1329.42254
G0 F7200 X181.788 Y111.472
G1 F6000 X180.71 Y112.549 E1329.54924
G1 X180.64 Y112.619
G0 F7200 X180.71 Y114.591
G1 F6000 X181.788 Y115.669 E1329.67601
G0 F7200 X181.788 Y115.244
G1 F6000 X180.71 Y116.321 E1329.80271
G1 X180.64 Y116.391
G0 F7200 X180.71 Y118.363
G1 F6000 X181.788 Y119.441 E1329.92948
G0 F7200 X181.788 Y119.015
G1 F6000 X180.71 Y120.093 E1330.05624
G1 X180.64 Y120.163
G0 F7200 X180.71 Y122.134
G1 F6000 X181.788 Y123.213 E1330.18307
G0 F7200 X181.788 Y122.787
G1 F6000 X180.71 Y123.865 E1330.30983
G1 X180.64 Y123.935
G0 F7200 X180.71 Y125.906
G1 F6000 X181.788 Y126.984 E1330.4366
G0 F7200 X181.788 Y126.559
G1 F6000 X180.71 Y127.636 E1330.5633
G1 X180.64 Y127.706
G0 F7200 X180.71 Y129.678
G1 F6000 X181.788 Y130.756 E1330.69007
G0 F7200 X181.788 Y130.33
G1 F6000 X180.71 Y131.408 E1330.81683
G1 X180.64 Y131.478
G0 F7200 X180.389 Y133.128
G1 F6000 X181.788 Y134.528 E1330.9814
G0 F7200 X181.788 Y134.102
G1 F6000 X181.274 Y134.616 E1331.04184
G0 F7200 X178.583 Y133.536
G1 F6000 X177.502 Y134.616 E1331.1689
G0 F7200 X178.104 Y134.615
G1 F6000 X177.024 Y133.536 E1331.29584
G1 X176.954 Y133.466
G0 F7200 X174.811 Y133.536
G1 F6000 X173.73 Y134.616 E1331.4229
G0 F7200 X174.332 Y134.615
G1 F6000 X173.252 Y133.536 E1331.54984
G1 X173.182 Y133.466
G0 F7200 X171.039 Y133.536
G1 F6000 X169.959 Y134.616 E1331.67684
G0 F7200 X170.561 Y134.615
G1 F6000 X169.481 Y133.536 E1331.80378
G1 X169.411 Y133.466
G0 F7200 X167.268 Y133.536
G1 F6000 X166.187 Y134.616 E1331.93084
G0 F7200 X166.789 Y134.615
G1 F6000 X165.709 Y133.536 E1332.05778
G1 X165.639 Y133.466
G0 F7200 X163.496 Y133.536
G1 F6000 X162.415 Y134.616 E1332.18484
G0 F7200 X163.017 Y134.615
G1 F6000 X161.937 Y133.536 E1332.31178
G1 X161.867 Y133.466
G0 F7200 X159.724 Y133.536
G1 F6000 X158.644 Y134.616 E1332.43878
G0 F7200 X159.245 Y134.615
G1 F6000 X158.166 Y133.536 E1332.56566
G1 X158.096 Y133.466
G0 F7200 X155.952 Y133.536
G1 F6000 X154.872 Y134.616 E1332.69266
G0 F7200 X155.474 Y134.615
G1 F6000 X154.394 Y133.536 E1332.81961
G1 X154.324 Y133.466
G0 F7200 X152.181 Y133.536
G1 F6000 X151.1 Y134.616 E1332.94666
G0 F7200 X151.702 Y134.615
G1 F6000 X150.622 Y133.536 E1333.0736
G1 X150.552 Y133.466
G0 F7200 X148.409 Y133.536
G1 F6000 X147.329 Y134.616 E1333.2006
G0 F7200 X147.93 Y134.615
G1 F6000 X146.851 Y133.536 E1333.32749
G1 X146.781 Y133.466
G0 F7200 X144.637 Y133.536
G1 F6000 X143.557 Y134.616 E1333.45449
G0 F7200 X144.159 Y134.615
G1 F6000 X143.079 Y133.536 E1333.58143
G1 X143.009 Y133.466
G0 F7200 X140.866 Y133.536
G1 F6000 X139.785 Y134.616 E1333.70849
G0 F7200 X140.387 Y134.615
G1 F6000 X139.307 Y133.536 E1333.83543
G1 X139.237 Y133.466
G0 F7200 X137.094 Y133.536
G1 F6000 X136.013 Y134.616 E1333.96249
G0 F7200 X136.615 Y134.615
G1 F6000 X135.535 Y133.536 E1334.08943
G1 X135.465 Y133.466
G0 F7200 X133.322 Y133.536
G1 F6000 X132.242 Y134.616 E1334.21643
G0 F7200 X132.843 Y134.615
G1 F6000 X131.764 Y133.536 E1334.34331
G1 X131.694 Y133.466
G0 F7200 X129.55 Y133.536
G1 F6000 X128.47 Y134.616 E1334.47031
G0 F7200 X129.072 Y134.615
G1 F6000 X127.992 Y133.536 E1334.59725
G1 X127.922 Y133.466
G0 F7200 X125.779 Y133.536
G1 F6000 X124.698 Y134.616 E1334.72431
G0 F7200 X125.3 Y134.615
G1 F6000 X124.22 Y133.536 E1334.85125
G1 X124.15 Y133.466
G0 F7200 X122.007 Y133.536
G1 F6000 X120.927 Y134.616 E1334.97825
G0 F7200 X121.528 Y134.615
G1 F6000 X120.449 Y133.536 E1335.10513
G1 X120.379 Y133.466
G0 F7200 X118.235 Y133.536
G1 F6000 X117.155 Y134.616 E1335.23213
G0 F7200 X117.757 Y134.615
G1 F6000 X116.677 Y133.536 E1335.35907
G1 X116.607 Y133.466
G0 F7200 X114.464 Y133.536
G1 F6000 X113.383 Y134.616 E1335.48613
G0 F7200 X113.985 Y134.615
G1 F6000 X112.905 Y133.536 E1335.61307
G1 X112.835 Y133.466
G0 F7200 X110.692 Y133.536
G1 F6000 X109.611 Y134.616 E1335.74013
G0 F7200 X110.213 Y134.615
G1 F6000 X109.133 Y133.536 E1335.86707
G1 X109.063 Y133.466
G0 F7200 X106.92 Y133.536
G1 F6000 X105.84 Y134.616 E1335.99407
G0 F7200 X106.441 Y134.615
G1 F6000 X105.362 Y133.536 E1336.12095
G1 X105.292 Y133.466
G0 F7200 X103.148 Y133.536
G1 F6000 X102.068 Y134.616 E1336.24795
G0 F7200 X102.67 Y134.615
G1 F6000 X101.59 Y133.536 E1336.37489
G1 X101.52 Y133.466
G0 F7200 X99.377 Y133.536
G1 F6000 X98.296 Y134.616 E1336.50195
G0 F7200 X98.898 Y134.615
G1 F6000 X97.818 Y133.536 E1336.62889
G1 X97.748 Y133.466
G0 F7200 X95.605 Y133.536
G1 F6000 X94.525 Y134.616 E1336.75589
G0 F7200 X95.126 Y134.615
G1 F6000 X94.047 Y133.536 E1336.88277
G1 X93.977 Y133.466
G0 F7200 X91.833 Y133.536
G1 F6000 X90.753 Y134.616 E1337.00977
G0 F7200 X91.355 Y134.615
G1 F6000 X90.275 Y133.536 E1337.13671
G1 X90.205 Y133.466
G0 F7200 X88.062 Y133.536
G1 F6000 X86.981 Y134.616 E1337.26377
G0 F7200 X87.583 Y134.615
G1 F6000 X86.503 Y133.536 E1337.39071
G1 X86.433 Y133.466
G0 F7200 X84.29 Y133.536
G1 F6000 X83.209 Y134.616 E1337.51777
G0 F7200 X83.811 Y134.615
G1 F6000 X82.731 Y133.536 E1337.64471
G1 X82.661 Y133.466
G0 F7200 X80.518 Y133.536
G1 F6000 X79.438 Y134.616 E1337.77171
G0 F7200 X80.04 Y134.615
G1 F6000 X78.96 Y133.536 E1337.89865
G1 X78.89 Y133.466
G0 F7200 X76.747 Y133.536
G1 F6000 X75.666 Y134.616 E1338.02571
G0 F7200 X76.268 Y134.615
G1 F6000 X75.188 Y133.536 E1338.15265
G1 X75.118 Y133.466
G0 F7200 X72.975 Y133.536
G1 F6000 X71.894 Y134.616 E1338.27971
G0 F7200 X72.496 Y134.615
G1 F6000 X71.416 Y133.536 E1338.40665
G1 X71.346 Y133.466
G0 F7200 X69.611 Y133.128
G1 F6000 X68.208 Y134.531 E1338.57163
G0 F7200 X68.208 Y134.099
G1 F6000 X68.724 Y134.615 E1338.63231
G0 F7200 X69.29 Y131.409
G1 F6000 X68.208 Y130.327 E1338.75955
G0 F7200 X68.208 Y130.759
G1 F6000 X69.29 Y129.677 E1338.88678
G1 X69.36 Y129.607
G0 F7200 X69.29 Y127.638
G1 F6000 X68.208 Y126.555 E1339.01408
G0 F7200 X68.208 Y126.987
G1 F6000 X69.29 Y125.905 E1339.14131
G1 X69.36 Y125.835
G0 F7200 X69.29 Y123.866
G1 F6000 X68.208 Y122.783 E1339.2686
G0 F7200 X68.208 Y123.215
G1 F6000 X69.29 Y122.134 E1339.39578
G1 X69.36 Y122.064
G0 F7200 X69.29 Y120.094
G1 F6000 X68.208 Y119.012 E1339.52302
G0 F7200 X68.208 Y119.444
G1 F6000 X69.29 Y118.362 E1339.65025
G1 X69.36 Y118.292
G0 F7200 X69.29 Y116.323
G1 F6000 X68.208 Y115.24 E1339.77754
G0 F7200 X68.208 Y115.672
G1 F6000 X69.29 Y114.59 E1339.90478
G1 X69.36 Y114.52
G0 F7200 X69.29 Y112.551
G1 F6000 X68.208 Y111.468 E1340.03207
G0 F7200 X68.208 Y111.9
G1 F6000 X69.29 Y110.818 E1340.15931
G1 X69.36 Y110.748
G0 F7200 X69.29 Y108.779
G1 F6000 X68.208 Y107.697 E1340.28654
G0 F7200 X68.208 Y108.129
G1 F6000 X69.29 Y107.047 E1340.41378
G1 X69.36 Y106.977
G0 F7200 X69.29 Y105.007
G1 F6000 X68.208 Y103.925 E1340.54101
G0 F7200 X68.208 Y104.357
G1 F6000 X69.29 Y103.275 E1340.66825
G1 X69.36 Y103.205
G0 F7200 X69.29 Y101.236
G1 F6000 X68.208 Y100.153 E1340.79554
G0 F7200 X68.208 Y100.585
G1 F6000 X69.29 Y99.503 E1340.92278
G1 X69.36 Y99.433
G0 F7200 X69.29 Y97.464
G1 F6000 X68.208 Y96.381 E1341.05007
G0 F7200 X68.208 Y96.814
G1 F6000 X69.29 Y95.732 E1341.1773
G1 X69.36 Y95.662
G0 F7200 X69.29 Y93.692
G1 F6000 X68.208 Y92.61 E1341.30454
G0 F7200 X68.208 Y93.042
G1 F6000 X69.29 Y91.96 E1341.43177
G1 X69.36 Y91.89
G0 F7200 X69.29 Y89.921
G1 F6000 X68.208 Y88.838 E1341.55907
G0 F7200 X68.208 Y89.27
G1 F6000 X69.29 Y88.188 E1341.6863
G1 X69.36 Y88.118
G0 F7200 X69.29 Y86.149
G1 F6000 X68.208 Y85.066 E1341.8136
G0 F7200 X68.208 Y85.498
G1 F6000 X69.29 Y84.417 E1341.94077
G1 X69.36 Y84.347
G0 F7200 X69.29 Y82.377
G1 F6000 X68.208 Y81.295 E1342.06801
G0 F7200 X68.208 Y81.727
G1 F6000 X69.29 Y80.645 E1342.19524
G1 X69.36 Y80.575
G0 F7200 X69.29 Y78.606
G1 F6000 X68.208 Y77.523 E1342.32254
G0 F7200 X68.208 Y77.955
G1 F6000 X69.29 Y76.873 E1342.44977
G1 X69.36 Y76.803
G0 F7200 X69.29 Y74.834
G1 F6000 X68.208 Y73.751 E1342.57706
G0 F7200 X68.208 Y74.183
