;FLAVOR:Marlin
;TIME:11070
;Filament used: 42.384m
;Layer height: 0.3
;MINX:55.377
;MINY:44.676
;MINZ:0.2
;MAXX:188.15
;MAXY:140.976
;MAXZ:45.77
;TARGET_MACHINE.NAME:Anycubic Vyper
;POSTPROCESSED
;  [PauseAtHeight]
;  [PauseAtHeight]
;Generated with Cura_SteamEngine 5.11.0
M140 S65
M105
M190 S65
M104 S205
M105
M109 S205
G21 ;metric values
G90 ;absolute positioning
M82 ;set extruder to absolute mode
M107 ;start with the fan off
G28 X0 Y0 ;move X/Y to min endstops
M300 S1318 P266
G28 Z0 ;move Z to min endstops
G0 Z0.2
G92 E0 ;zero the extruded length
G1 X40 E25 F400 ; Extrude 25mm of filament in a 4cm line. Reduce speed (F) if you have a nozzle smaller than 0.4mm!
G92 E0 ;zero the extruded length again
G1 E-1 F500 ; Retract a little
G1 X80 F4000 ; Quickly wipe away from the filament line
M117 ; Printing…
G5
M82 ;absolute extrusion mode
G92 E0
G92 E0
G1 F1500 E-6.5


G1 F300 Z26.3


G1 F9000 X68.208 Y51.121
G1 F300 Z26.13 ; move back down to resume height
G1 F3000 ; restore extrusion feedrate
G92 E3285.06216
;LAYER:62
;TYPE:FILL
;MESH:Body1(3)
G1 F6000 X78.116 Y61.029 E3286.01755
G1 X78.186 Y61.099
G0 F7200 X81.474 Y60.616
G1 F6000 X71.894 Y51.036 E3286.94131
G0 F7200 X72.498 Y51.035
G1 F6000 X68.208 Y55.325 E3287.35497
G0 F7200 X68.208 Y54.893
G1 F6000 X77.788 Y64.473 E3288.27873
G1 X77.787 Y64.604
G1 X68.208 Y74.184 E3289.20244
G0 F7200 X68.208 Y73.751
G1 F6000 X77.788 Y83.332 E3290.12625
G1 X77.787 Y83.463
G1 X68.208 Y93.043 E3291.04996
G0 F7200 X68.208 Y92.61
G1 F6000 X77.788 Y102.19 E3291.97372
G1 X77.787 Y102.321
G1 X68.208 Y111.901 E3292.89743
G0 F7200 X68.208 Y111.468
G1 F6000 X77.788 Y121.049 E3293.82123
G1 X77.787 Y121.18
G1 X68.208 Y130.76 E3294.74494
G0 F7200 X68.208 Y130.327
G1 F6000 X72.496 Y134.615 E3295.15842
G0 F7200 X71.894 Y134.616
G1 F6000 X81.475 Y125.036 E3296.08222
G0 F7200 X81.775 Y125.036
G1 F6000 X91.355 Y134.615 E3297.00593
G0 F7200 X90.753 Y134.616
G1 F6000 X100.334 Y125.036 E3297.92974
G0 F7200 X100.634 Y125.036
G1 F6000 X110.213 Y134.615 E3298.8534
G0 F7200 X109.611 Y134.616
G1 F6000 X119.192 Y125.036 E3299.77721
G0 F7200 X119.493 Y125.036
G1 F6000 X120.072 Y125.615 E3299.83304
G1 X120.142 Y125.685
G0 F7200 X119.149 Y125.93
G0 X118.659 Y126.42
G0 X118.288 Y127.603
G1 F6000 X115.721 Y125.036 E3300.08057
G0 F7200 X115.42 Y125.036
G1 F6000 X105.84 Y134.616 E3301.00432
G0 F7200 X106.441 Y134.615
G1 F6000 X96.862 Y125.036 E3301.92799
G0 F7200 X96.562 Y125.036
G1 F6000 X86.981 Y134.616 E3302.85179
G0 F7200 X87.583 Y134.615
G1 F6000 X68.208 Y115.24 E3304.72004
G0 F7200 X68.208 Y115.673
G1 F6000 X77.787 Y106.093 E3305.64375
G1 X77.788 Y105.962
G1 X68.208 Y96.381 E3306.56756
G0 F7200 X68.208 Y96.814
G1 F6000 X77.787 Y87.234 E3307.49127
G1 X77.788 Y87.104
G1 X68.208 Y77.523 E3308.41507
G0 F7200 X68.208 Y77.956
G1 F6000 X77.787 Y68.376 E3309.33878
G1 X77.788 Y68.245
G1 X68.208 Y58.664 E3310.26259
G0 F7200 X68.208 Y59.097
G1 F6000 X76.269 Y51.035 E3311.03993
G0 F7200 X75.666 Y51.036
G1 F6000 X85.246 Y60.616 E3311.96368
G0 F7200 X85.547 Y60.616
G1 F6000 X95.128 Y51.035 E3312.88754
G0 F7200 X94.525 Y51.036
G1 F6000 X104.105 Y60.616 E3313.8113
G0 F7200 X104.406 Y60.616
G1 F6000 X113.986 Y51.035 E3314.7351
G0 F7200 X113.383 Y51.036
G1 F6000 X118.288 Y55.941 E3315.20807
G1 X118.358 Y56.011
G0 F7200 X118.288 Y54.278
G1 F6000 X111.949 Y60.616 E3315.81927
G0 F7200 X111.648 Y60.616
G1 F6000 X102.068 Y51.036 E3316.74303
G0 F7200 X102.671 Y51.035
G1 F6000 X93.091 Y60.616 E3317.66683
G0 F7200 X92.789 Y60.616
G1 F6000 X83.209 Y51.036 E3318.59059
G0 F7200 X83.813 Y51.035
G1 F6000 X68.208 Y66.641 E3320.09536
G0 F7200 X68.208 Y66.208
G1 F6000 X77.788 Y75.788 E3321.01912
G1 X77.787 Y75.919
G1 X68.208 Y85.499 E3321.94283
G0 F7200 X68.208 Y85.066
G1 F6000 X77.788 Y94.647 E3322.86664
G1 X77.787 Y94.778
G1 X68.208 Y104.358 E3323.79035
G0 F7200 X68.208 Y103.925
G1 F6000 X77.788 Y113.505 E3324.71411
G1 X77.787 Y113.636
G1 X68.208 Y123.216 E3325.63782
G0 F7200 X68.208 Y122.783
G1 F6000 X80.04 Y134.615 E3326.77872
G0 F7200 X79.438 Y134.616
G1 F6000 X89.018 Y125.036 E3327.70248
G0 F7200 X89.319 Y125.036
G1 F6000 X98.898 Y134.615 E3328.62614
G0 F7200 X98.296 Y134.616
G1 F6000 X107.877 Y125.036 E3329.54995
G0 F7200 X108.177 Y125.036
G1 F6000 X117.757 Y134.615 E3330.47366
G0 F7200 X117.155 Y134.616
G1 F6000 X118.434 Y133.337 E3330.59699
G1 X118.504 Y133.267
G0 F7200 X118.288 Y131.375
G1 F6000 X111.949 Y125.036 E3331.20823
G0 F7200 X111.649 Y125.036
G1 F6000 X102.068 Y134.616 E3332.13204
G0 F7200 X102.67 Y134.615
G1 F6000 X93.091 Y125.036 E3333.0557
G0 F7200 X92.79 Y125.036
G1 F6000 X83.209 Y134.616 E3333.97951
G0 F7200 X83.811 Y134.615
G1 F6000 X68.208 Y119.012 E3335.48404
G0 F7200 X68.208 Y119.444
G1 F6000 X77.787 Y109.865 E3336.4077
G1 X77.788 Y109.734
G1 X68.208 Y100.153 E3337.33151
G0 F7200 X68.208 Y100.586
G1 F6000 X77.787 Y91.006 E3338.25522
G1 X77.788 Y90.875
G1 X68.208 Y81.295 E3339.17897
G0 F7200 X68.208 Y81.727
G1 F6000 X77.787 Y72.148 E3340.10264
G1 X77.788 Y72.017
G1 X68.208 Y62.436 E3341.02644
G0 F7200 X68.208 Y62.869
G1 F6000 X80.041 Y51.035 E3342.1675
G0 F7200 X79.438 Y51.036
G1 F6000 X89.018 Y60.616 E3343.09126
G0 F7200 X89.319 Y60.616
G1 F6000 X98.899 Y51.035 E3344.01506
G0 F7200 X98.296 Y51.036
G1 F6000 X107.876 Y60.616 E3344.93882
G0 F7200 X108.177 Y60.616
G1 F6000 X117.758 Y51.035 E3345.86268
G0 F7200 X117.155 Y51.036
G1 F6000 X118.433 Y52.314 E3345.98591
G1 X118.503 Y52.384
G0 F7200 X119.084 Y51.975
G0 X120.949 Y51.616
G1 F6000 X121.53 Y51.035 E3346.04193
G0 F7200 X121.506 Y51.616
G1 F6000 X120.927 Y51.036 E3346.09781
G1 X120.857 Y50.966
G0 F7200 X124.698 Y51.036
G1 F6000 X125.278 Y51.616 E3346.15374
G0 F7200 X124.721 Y51.616
G1 F6000 X125.301 Y51.035 E3346.20971
G1 X125.371 Y50.965
G0 F7200 X128.47 Y51.036
G1 F6000 X129.05 Y51.616 E3346.26564
G0 F7200 X128.493 Y51.616
G1 F6000 X129.073 Y51.035 E3346.32161
G1 X129.143 Y50.965
G0 F7200 X131.565 Y52.315
G1 F6000 X132.845 Y51.035 E3346.44504
G0 F7200 X132.242 Y51.036
G1 F6000 X141.822 Y60.616 E3347.3688
G0 F7200 X142.123 Y60.616
G1 F6000 X151.703 Y51.035 E3348.2926
G0 F7200 X151.1 Y51.036
G1 F6000 X160.68 Y60.616 E3349.21636
G0 F7200 X160.981 Y60.616
G1 F6000 X170.562 Y51.035 E3350.14022
G0 F7200 X169.959 Y51.036
G1 F6000 X181.788 Y62.865 E3351.28084
G0 F7200 X181.788 Y62.44
G1 F6000 X172.208 Y72.02 E3352.20459
G1 X172.208 Y72.144
G1 X181.788 Y81.724 E3353.12835
G0 F7200 X181.788 Y81.298
G1 F6000 X172.208 Y90.878 E3354.05211
G1 X172.208 Y91.003
G1 X181.788 Y100.582 E3354.97582
G0 F7200 X181.788 Y100.157
G1 F6000 X172.208 Y109.737 E3355.89958
G1 X172.208 Y109.861
G1 X181.788 Y119.441 E3356.82334
G0 F7200 X181.788 Y119.015
G1 F6000 X166.187 Y134.616 E3358.32768
G0 F7200 X166.789 Y134.615
G1 F6000 X157.21 Y125.036 E3359.25134
G0 F7200 X156.908 Y125.036
G1 F6000 X147.329 Y134.616 E3360.17505
G0 F7200 X147.93 Y134.615
G1 F6000 X138.351 Y125.036 E3361.09871
G0 F7200 X138.05 Y125.036
G1 F6000 X131.709 Y131.378 E3361.71019
G1 X131.639 Y131.448
G0 F7200 X131.708 Y129.708
G1 F6000 X136.615 Y134.615 E3362.18335
G0 F7200 X136.013 Y134.616
G1 F6000 X145.593 Y125.036 E3363.10711
G0 F7200 X145.895 Y125.036
G1 F6000 X155.474 Y134.615 E3364.03077
G0 F7200 X154.872 Y134.616
G1 F6000 X164.452 Y125.036 E3364.95453
G0 F7200 X164.753 Y125.036
G1 F6000 X174.332 Y134.615 E3365.87819
G0 F7200 X173.73 Y134.616
G1 F6000 X181.788 Y126.559 E3366.65514
G0 F7200 X181.788 Y126.984
G1 F6000 X172.208 Y117.404 E3367.5789
G1 X172.208 Y117.28
G1 X181.788 Y107.7 E3368.50266
G0 F7200 X181.788 Y108.126
G1 F6000 X172.208 Y98.546 E3369.42642
G1 X172.208 Y98.421
G1 X181.788 Y88.842 E3370.35013
G0 F7200 X181.788 Y89.267
G1 F6000 X172.208 Y79.687 E3371.27389
G1 X172.208 Y79.563
G1 X181.788 Y69.983 E3372.19765
G0 F7200 X181.788 Y70.409
G1 F6000 X162.415 Y51.036 E3374.0657
G0 F7200 X163.019 Y51.035
G1 F6000 X153.438 Y60.616 E3374.98956
G0 F7200 X153.137 Y60.616
G1 F6000 X143.557 Y51.036 E3375.91332
G0 F7200 X144.16 Y51.035
G1 F6000 X134.579 Y60.616 E3376.83717
G0 F7200 X134.278 Y60.616
G1 F6000 X131.708 Y58.046 E3377.08498
G1 X131.638 Y57.976
G0 F7200 X131.708 Y55.944
G1 F6000 X136.617 Y51.035 E3377.55834
G0 F7200 X136.013 Y51.036
G1 F6000 X145.593 Y60.616 E3378.4821
G0 F7200 X145.895 Y60.616
G1 F6000 X155.475 Y51.035 E3379.4059
G0 F7200 X154.872 Y51.036
G1 F6000 X164.452 Y60.616 E3380.32966
G0 F7200 X164.753 Y60.616
G1 F6000 X174.334 Y51.035 E3381.25352
G0 F7200 X173.73 Y51.036
G1 F6000 X181.788 Y59.094 E3382.03051
G0 F7200 X181.788 Y58.668
G1 F6000 X172.208 Y68.248 E3382.95427
G1 X172.208 Y68.372
G1 X181.788 Y77.952 E3383.87803
G0 F7200 X181.788 Y77.526
G1 F6000 X172.208 Y87.106 E3384.80179
G1 X172.208 Y87.231
G1 X181.788 Y96.811 E3385.72555
G0 F7200 X181.788 Y96.385
G1 F6000 X172.208 Y105.965 E3386.64931
G1 X172.208 Y106.089
G1 X181.788 Y115.669 E3387.57306
G0 F7200 X181.788 Y115.244
G1 F6000 X162.415 Y134.616 E3389.44107
G0 F7200 X163.017 Y134.615
G1 F6000 X153.438 Y125.036 E3390.36473
G0 F7200 X153.137 Y125.036
G1 F6000 X143.557 Y134.616 E3391.28849
G0 F7200 X144.159 Y134.615
G1 F6000 X134.579 Y125.036 E3392.2122
G0 F7200 X134.278 Y125.036
G1 F6000 X131.709 Y127.606 E3392.45997
G1 X131.639 Y127.676
G0 F7200 X131.396 Y126.475
G0 X130.906 Y125.985
G0 X129.927 Y125.616
G1 F6000 X130.506 Y125.036 E3392.51585
G0 F7200 X130.808 Y125.036
G1 F6000 X140.387 Y134.615 E3393.43951
G0 F7200 X139.785 Y134.616
G1 F6000 X149.365 Y125.036 E3394.36327
G0 F7200 X149.666 Y125.036
G1 F6000 X159.245 Y134.615 E3395.28693
G0 F7200 X158.644 Y134.616
G1 F6000 X168.224 Y125.036 E3396.21069
G0 F7200 X168.525 Y125.036
G1 F6000 X178.104 Y134.615 E3397.13435
G0 F7200 X177.502 Y134.616
G1 F6000 X181.788 Y130.33 E3397.54763
G0 F7200 X181.788 Y130.756
G1 F6000 X172.208 Y121.176 E3398.47139
G1 X172.208 Y121.052
G1 X181.788 Y111.472 E3399.39515
G0 F7200 X181.788 Y111.898
G1 F6000 X172.208 Y102.318 E3400.3189
G1 X172.208 Y102.193
G1 X181.788 Y92.613 E3401.24266
G0 F7200 X181.788 Y93.039
G1 F6000 X172.208 Y83.459 E3402.16642
G1 X172.208 Y83.335
G1 X181.788 Y73.755 E3403.09018
G0 F7200 X181.788 Y74.18
G1 F6000 X172.208 Y64.601 E3404.01389
G1 X172.208 Y64.476
G1 X181.788 Y54.896 E3404.93765
G0 F7200 X181.788 Y55.322
G1 F6000 X177.502 Y51.036 E3405.35093
G0 F7200 X178.105 Y51.035
G1 F6000 X168.525 Y60.616 E3406.27474
G0 F7200 X168.224 Y60.616
G1 F6000 X158.644 Y51.036 E3407.19849
G0 F7200 X159.247 Y51.035
G1 F6000 X149.666 Y60.616 E3408.12235
G0 F7200 X149.365 Y60.616
G1 F6000 X139.785 Y51.036 E3409.04611
G0 F7200 X140.388 Y51.035
G1 F6000 X130.808 Y60.616 E3409.96991
G0 F7200 X130.506 Y60.616
G1 F6000 X129.927 Y60.036 E3410.02579
G1 X129.857 Y59.966
G0 F7200 X130.851 Y59.722
G0 X131.396 Y59.177
G0 X131.708 Y54.274
G1 F6000 X138.05 Y60.616 E3410.63732
G0 F7200 X138.351 Y60.616
G1 F6000 X147.932 Y51.035 E3411.56118
G0 F7200 X147.329 Y51.036
G1 F6000 X156.908 Y60.616 E3412.48489
G0 F7200 X157.21 Y60.616
G1 F6000 X166.79 Y51.035 E3413.4087
G0 F7200 X166.187 Y51.036
G1 F6000 X181.788 Y66.637 E3414.91303
G0 F7200 X181.788 Y66.211
G1 F6000 X172.208 Y75.791 E3415.83679
G1 X172.208 Y75.916
G1 X181.788 Y85.496 E3416.76055
G0 F7200 X181.788 Y85.07
G1 F6000 X172.208 Y94.65 E3417.68431
G1 X172.208 Y94.774
G1 X181.788 Y104.354 E3418.60807
G0 F7200 X181.788 Y103.928
G1 F6000 X172.208 Y113.508 E3419.53182
G1 X172.208 Y113.633
G1 X181.788 Y123.213 E3420.45558
G0 F7200 X181.788 Y122.787
G1 F6000 X169.959 Y134.616 E3421.5962
G0 F7200 X170.561 Y134.615
G1 F6000 X160.981 Y125.036 E3422.51991
G0 F7200 X160.68 Y125.036
G1 F6000 X151.1 Y134.616 E3423.44367
G0 F7200 X151.702 Y134.615
G1 F6000 X142.123 Y125.036 E3424.36733
G0 F7200 X141.822 Y125.036
G1 F6000 X132.242 Y134.616 E3425.29109
G0 F7200 X132.843 Y134.615
G1 F6000 X131.564 Y133.336 E3425.41442
G1 X131.494 Y133.266
G0 F7200 X130.915 Y133.676
G0 X129.051 Y134.036
G1 F6000 X128.47 Y134.616 E3425.4704
G0 F7200 X128.492 Y134.036
G1 F6000 X129.072 Y134.615 E3425.52627
G1 X129.142 Y134.685
G0 F7200 X125.3 Y134.615
G1 F6000 X124.72 Y134.036 E3425.58215
G0 F7200 X125.279 Y134.036
G1 F6000 X124.698 Y134.616 E3425.63813
G1 X124.628 Y134.686
G0 F7200 X121.528 Y134.615
G1 F6000 X120.948 Y134.036 E3425.69401
G0 F7200 X121.507 Y134.036
G1 F6000 X120.927 Y134.616 E3425.74993
G1 X120.857 Y134.686
G0 F7200 X119.149 Y133.722
G0 X118.604 Y133.177
G0 X118.288 Y129.712
G1 F6000 X113.383 Y134.616 E3426.22285
G0 F7200 X113.985 Y134.615
G1 F6000 X104.406 Y125.036 E3427.14652
G0 F7200 X104.105 Y125.036
G1 F6000 X94.525 Y134.616 E3428.07027
G0 F7200 X95.126 Y134.615
G1 F6000 X85.547 Y125.036 E3428.99394
G0 F7200 X85.247 Y125.036
G1 F6000 X75.666 Y134.616 E3429.91774
G0 F7200 X76.268 Y134.615
G1 F6000 X68.208 Y126.555 E3430.69493
G0 F7200 X68.208 Y126.988
G1 F6000 X77.787 Y117.408 E3431.61864
G1 X77.788 Y117.277
G1 X68.208 Y107.697 E3432.5424
G0 F7200 X68.208 Y108.129
G1 F6000 X77.787 Y98.549 E3433.46611
G1 X77.788 Y98.419
G1 X68.208 Y88.838 E3434.38992
G0 F7200 X68.208 Y89.271
G1 F6000 X77.787 Y79.691 E3435.31363
G1 X77.788 Y79.56
G1 X68.208 Y69.98 E3436.23739
G0 F7200 X68.208 Y70.412
G1 F6000 X87.584 Y51.035 E3438.10578
G0 F7200 X86.981 Y51.036
G1 F6000 X96.561 Y60.616 E3439.02954
G0 F7200 X96.862 Y60.616
G1 F6000 X106.443 Y51.035 E3439.95339
G0 F7200 X105.84 Y51.036
G1 F6000 X115.42 Y60.616 E3440.87715
G0 F7200 X115.721 Y60.616
G1 F6000 X118.288 Y58.049 E3441.12468
G1 X118.358 Y57.979
G0 F7200 X118.604 Y59.177
G0 X119.094 Y59.667
G0 X120.073 Y60.035
G1 F6000 X119.493 Y60.616 E3441.18065
G0 F7200 X119.191 Y60.616
G1 F6000 X109.611 Y51.036 E3442.10441
G0 F7200 X110.215 Y51.035
G1 F6000 X100.634 Y60.616 E3443.02826
G0 F7200 X100.333 Y60.616
G1 F6000 X90.753 Y51.036 E3443.95202
G0 F7200 X91.356 Y51.035
G1 F6000 X81.775 Y60.616 E3444.87588
G1 X81.705 Y60.686
G0 F7200 X68.726 Y51.035
G1 F6000 X68.208 Y51.554 E3444.92587
G0 F7200 X78.116 Y124.623
G1 F6000 X68.208 Y134.531 E3445.88126
G0 F7200 X68.208 Y134.099
G1 F6000 X68.724 Y134.615 E3445.93102
G0 F7200 X119.149 Y125.93
G0 X171.351 Y124.722
G0 X171.88 Y124.62
G1 F6000 X181.788 Y134.528 E3446.8864
G0 F7200 X181.788 Y134.102
G1 F6000 X181.274 Y134.616 E3446.93597
G0 F7200 X171.884 Y61.029
G1 F6000 X181.788 Y51.125 E3447.89097
G0 F7200 X181.788 Y51.55
G1 F6000 X181.274 Y51.036 E3447.94053
G0 F7200 X130.918 Y59.785
;TYPE:WALL-INNER
G1 F6000 X130.625 Y59.876 E3447.96145
G1 X119.5 Y59.876 E3448.71999
G1 X119.102 Y59.794 E3448.74769
G1 X118.741 Y59.531 E3448.77815
G1 X118.505 Y59.158 E3448.80824
G1 X118.448 Y58.824 E3448.83134
G1 X118.448 Y52.824 E3449.24044
G1 X118.51 Y52.475 E3449.26461
G1 X118.821 Y52.041 E3449.30102
G1 X119.357 Y51.776 E3449.34179
G1 X130.5 Y51.776 E3450.10155
G1 X130.898 Y51.858 E3450.12926
G1 X131.256 Y52.116 E3450.15935
G1 X131.492 Y52.49 E3450.1895
G1 X131.548 Y52.824 E3450.21259
G1 X131.548 Y58.824 E3450.62169
G1 X131.496 Y59.143 E3450.64373
G1 X131.283 Y59.503 E3450.67225
G1 X130.918 Y59.785 E3450.7037
G0 F7200 X130.751 Y59.422
G1 F6000 X130.575 Y59.476 E3450.71625
G1 X119.5 Y59.476 E3451.47138
G1 X119.261 Y59.427 E3451.48802
G1 X119.023 Y59.249 E3451.50828
G1 X118.882 Y59.024 E3451.52638
G1 X118.848 Y58.824 E3451.54022
G1 X118.848 Y52.824 E3451.94932
G1 X118.885 Y52.614 E3451.96386
G1 X119.093 Y52.335 E3451.98758
G1 X119.414 Y52.176 E3452.01201
G1 X130.5 Y52.176 E3452.76789
G1 X130.739 Y52.225 E3452.78452
G1 X130.973 Y52.399 E3452.8044
G1 X131.114 Y52.624 E3452.82251
G1 X131.148 Y52.824 E3452.83634
G1 X131.148 Y58.824 E3453.24544
G1 X131.117 Y59.016 E3453.2587
G1 X130.989 Y59.231 E3453.27576
G1 X130.751 Y59.422 E3453.29657
G0 F7200 X130.995 Y59.667
G0 X171.351 Y60.93
G0 X171.896 Y61.475
G0 X171.896 Y124.177
