;FLAVOR:Marlin
;TIME:2961
;Filament used: 4.55627m
;Layer height: 0.3
;MINX:63.659
;MINY:28.797
;MINZ:0.2
;MAXX:169.437
;MAXY:118.097
;MAXZ:7.86
;TARGET_MACHINE.NAME:Anycubic Vyper
;Generated with Cura_SteamEngine 5.11.0
M140 S65
M105
M190 S65
M104 S205
M105
M109 S205
G21 ;metric values
G90 ;absolute positioning
M82 ;set extruder to absolute mode
M107 ;start with the fan off
G28 X0 Y0 ;move X/Y to min endstops
M300 S1318 P266
G28 Z0 ;move Z to min endstops
G0 Z0.2
G92 E0 ;zero the extruded length
G1 X40 E25 F400 ; Extrude 25mm of filament in a 4cm line. Reduce speed (F) if you have a nozzle smaller than 0.4mm!
G92 E0 ;zero the extruded length again
G1 E-1 F500 ; Retract a little
G1 X80 F4000 ; Quickly wipe away from the filament line
M117 ; Printing…
G5
M82 ;absolute extrusion mode
G92 E0
G92 E0
G1 F1500 E-6.5
;LAYER_COUNT:30
;LAYER:0
M107
G0 F3600 X64.333 Y41.464 Z0.3
;TYPE:SKIRT
G1 F1500 E0
G1 F3000 X64.682 Y40.922 E0.03216
G1 X65.096 Y40.428 E0.06432
G1 X65.567 Y39.989 E0.09644
G1 X66.09 Y39.611 E0.12863
G1 X66.655 Y39.301 E0.16079
G1 X67.254 Y39.063 E0.19294
G1 X67.878 Y38.901 E0.22511
G1 X68.719 Y38.808 E0.26732
G1 X71.792 Y38.681 E0.42076
G1 X74.501 Y38.486 E0.55627
G1 X77.169 Y38.219 E0.69004
G1 X79.811 Y37.879 E0.82293
G1 X82.461 Y37.46 E0.95679
G1 X85.103 Y36.966 E1.09088
G1 X87.709 Y36.403 E1.22389
G1 X90.319 Y35.76 E1.358
G1 X92.903 Y35.047 E1.49173
G1 X95.465 Y34.26 E1.62545
G1 X98.002 Y33.402 E1.75906
G1 X100.539 Y32.463 E1.89402
G1 X103.003 Y31.471 E2.02654
G1 X105.488 Y30.387 E2.1618
G1 X108.02 Y29.201 E2.30129
G1 X108.699 Y28.977 E2.33697
G1 X109.169 Y28.877 E2.36094
G1 X109.992 Y28.797 E2.40219
G1 X115.972 Y28.798 E2.70054
G1 X116.67 Y28.808 E2.73536
G1 X117.244 Y28.847 E2.76407
G1 X117.878 Y28.966 E2.79625
G1 X118.576 Y29.19 E2.83282
G1 X120.016 Y29.864 E2.91214
G1 X122.463 Y30.969 E3.04609
G1 X124.947 Y32.007 E3.18041
G1 X127.445 Y32.969 E3.31395
G1 X129.994 Y33.869 E3.44882
G1 X132.503 Y34.676 E3.58031
G1 X135.108 Y35.432 E3.71564
G1 X137.709 Y36.109 E3.84972
G1 X140.305 Y36.706 E3.98262
G1 X142.963 Y37.239 E4.11787
G1 X145.586 Y37.689 E4.25064
G1 X148.223 Y38.063 E4.38352
G1 X150.922 Y38.37 E4.51904
G1 X153.559 Y38.594 E4.65107
G1 X156.254 Y38.746 E4.78574
G1 X158.154 Y38.822 E4.88061
G1 X159.119 Y38.979 E4.92939
G1 X160.55 Y39.462 E5.00474
G1 X160.774 Y39.527 E5.01637
G1 X161.74 Y39.857 E5.0673
G1 X164.365 Y40.671 E5.20441
G1 X164.966 Y40.906 E5.23661
G1 X165.532 Y41.214 E5.26876
G1 X166.056 Y41.589 E5.3009
G1 X166.495 Y41.99 E5.33057
G1 X167.15 Y42.664 E5.37746
G1 X167.648 Y43.206 E5.41418
G1 X168.148 Y43.843 E5.45458
G1 X168.471 Y44.4 E5.4867
G1 X168.761 Y45.102 E5.5246
G1 X169.042 Y46.022 E5.57259
G1 X169.236 Y46.723 E5.60888
G1 X169.373 Y47.382 E5.64246
G1 X169.433 Y48.133 E5.68004
G1 X169.42 Y49.123 E5.72944
G1 X169.43 Y55.102 E6.02773
G1 X169.416 Y56.31 E6.088
G1 X169.428 Y61.939 E6.36884
G1 X169.418 Y62.893 E6.41644
G1 X169.429 Y68.54 E6.69817
G1 X169.42 Y69.329 E6.73753
G1 X169.428 Y74.82 E7.01148
G1 X169.418 Y75.757 E7.05823
G1 X169.426 Y78.485 E7.19433
G1 X169.426 Y90.26 E7.78179
G1 X169.434 Y90.82 E7.80973
G1 X169.437 Y94.226 E7.97965
G1 X169.427 Y94.982 E8.01737
G1 X169.426 Y98.417 E8.18875
G1 X169.296 Y99.316 E8.23407
G1 X169.021 Y100.324 E8.28619
G1 X168.715 Y101.361 E8.34013
G1 X168.374 Y102.082 E8.37993
G1 X168.028 Y102.626 E8.41209
G1 X167.557 Y103.186 E8.4486
G1 X166.889 Y103.872 E8.49637
G1 X166.41 Y104.332 E8.5295
G1 X165.812 Y104.861 E8.56933
G1 X164.818 Y105.399 E8.62572
G1 X164.176 Y105.673 E8.66055
G1 X161.729 Y106.76 E8.79413
G1 X159.762 Y107.69 E8.90268
G1 X159.074 Y107.917 E8.93882
G1 X158.125 Y108.074 E8.98681
G1 X154.826 Y108.213 E9.15155
G1 X152.117 Y108.408 E9.28705
G1 X149.449 Y108.675 E9.42082
G1 X146.807 Y109.015 E9.55372
G1 X144.157 Y109.434 E9.68757
G1 X141.515 Y109.928 E9.82166
G1 X138.909 Y110.491 E9.95468
G1 X136.299 Y111.134 E10.08878
G1 X133.715 Y111.847 E10.22252
G1 X131.153 Y112.634 E10.35623
G1 X128.616 Y113.492 E10.48984
G1 X126.079 Y114.431 E10.62481
G1 X123.615 Y115.423 E10.75733
G1 X121.13 Y116.507 E10.89259
G1 X118.597 Y117.693 E11.03212
G1 X117.919 Y117.917 E11.06775
G1 X117.449 Y118.017 E11.09172
G1 X116.626 Y118.097 E11.13297
G1 X110.647 Y118.096 E11.43127
G1 X109.946 Y118.086 E11.46624
G1 X109.303 Y118.037 E11.49842
G1 X108.755 Y117.931 E11.52626
G1 X108.05 Y117.708 E11.56315
G1 X106.591 Y117.024 E11.64354
G1 X104.156 Y115.925 E11.77683
G1 X101.672 Y114.887 E11.91114
G1 X99.174 Y113.925 E12.04469
G1 X96.625 Y113.025 E12.17955
G1 X94.116 Y112.218 E12.31104
G1 X91.511 Y111.462 E12.44637
G1 X88.91 Y110.785 E12.58046
G1 X86.314 Y110.188 E12.71335
G1 X83.656 Y109.655 E12.8486
G1 X81.033 Y109.205 E12.98137
G1 X78.396 Y108.831 E13.11425
G1 X75.697 Y108.524 E13.24977
G1 X73.06 Y108.3 E13.38181
G1 X70.365 Y108.148 E13.51647
G1 X68.352 Y108.071 E13.61698
G1 X67.59 Y107.927 E13.65567
G1 X66.976 Y107.73 E13.68784
G1 X66.391 Y107.459 E13.72
G1 X65.844 Y107.117 E13.75219
G1 X65.344 Y106.711 E13.78432
G1 X64.898 Y106.245 E13.8165
G1 X64.513 Y105.728 E13.84866
G1 X64.195 Y105.168 E13.88079
G1 X63.948 Y104.572 E13.91298
G1 X63.778 Y103.95 E13.94515
G1 X63.685 Y103.312 E13.97731
G1 X63.659 Y102.555 E14.0151
G1 X63.66 Y44.62 E16.90549
G1 X63.67 Y43.931 E16.93987
G1 X63.719 Y43.288 E16.97204
G1 X63.847 Y42.656 E17.00421
G1 X64.053 Y42.045 E17.03638
G1 X64.333 Y41.464 E17.06856
G1 F1500 E10.56856
G0 F3600 X74.659 Y49.797
G1 F1500 E17.06856
G1 F3000 X77.82 Y49.797 E17.22626
G1 X78.184 Y50.18 E17.25262
G1 X78.274 Y50.234 E17.25786
G1 X78.52 Y50.304 E17.27062
G1 X78.645 Y50.299 E17.27686
G1 X78.721 Y50.249 E17.2814
G1 X78.781 Y50.185 E17.28577
G1 X80.105 Y49.814 E17.35437
G1 X81.429 Y50.185 E17.42297
G1 X82.125 Y50.918 E17.4734
G1 X82.235 Y50.977 E17.47963
G1 X82.359 Y50.959 E17.48588
G1 X82.415 Y50.918 E17.48934
G1 X83.111 Y50.185 E17.53977
G1 X84.435 Y49.814 E17.60837
G1 X85.759 Y50.185 E17.67697
G1 X86.455 Y50.918 E17.7274
G1 X86.565 Y50.977 E17.73363
G1 X86.689 Y50.959 E17.73988
G1 X86.745 Y50.918 E17.74334
G1 X87.441 Y50.185 E17.79377
G1 X88.765 Y49.814 E17.86237
G1 X90.089 Y50.185 E17.93097
G1 X90.785 Y50.918 E17.98139
G1 X90.895 Y50.977 E17.98762
G1 X91.019 Y50.959 E17.99387
G1 X91.075 Y50.918 E17.99734
G1 X91.771 Y50.185 E18.04776
G1 X93.095 Y49.814 E18.11636
G1 X94.419 Y50.185 E18.18496
G1 X95.115 Y50.918 E18.23539
G1 X95.225 Y50.977 E18.24162
G1 X95.349 Y50.959 E18.24787
G1 X95.405 Y50.918 E18.25133
G1 X96.101 Y50.185 E18.30176
G1 X97.425 Y49.814 E18.37036
G1 X98.749 Y50.185 E18.43896
G1 X99.445 Y50.918 E18.48939
G1 X99.555 Y50.977 E18.49561
G1 X99.679 Y50.959 E18.50187
G1 X99.735 Y50.918 E18.50533
G1 X100.431 Y50.185 E18.55576
G1 X101.755 Y49.814 E18.62436
G1 X103.079 Y50.185 E18.69296
G1 X103.775 Y50.918 E18.74338
G1 X103.885 Y50.977 E18.74961
G1 X104.009 Y50.959 E18.75586
G1 X104.065 Y50.918 E18.75933
G1 X104.761 Y50.185 E18.80975
G1 X106.085 Y49.814 E18.87835
G1 X107.409 Y50.185 E18.94695
G1 X108.105 Y50.918 E18.99738
G1 X108.215 Y50.977 E19.00361
G1 X108.339 Y50.959 E19.00986
G1 X108.395 Y50.918 E19.01332
G1 X109.091 Y50.185 E19.06375
G1 X110.415 Y49.814 E19.13235
G1 X111.739 Y50.185 E19.20095
G1 X112.435 Y50.918 E19.25138
G1 X112.545 Y50.977 E19.2576
G1 X112.669 Y50.959 E19.26386
G1 X112.725 Y50.918 E19.26732
G1 X113.421 Y50.185 E19.31775
G1 X114.745 Y49.814 E19.38635
G1 X116.069 Y50.185 E19.45494
G1 X116.765 Y50.918 E19.50537
G1 X116.875 Y50.977 E19.5116
G1 X116.999 Y50.959 E19.51785
G1 X117.055 Y50.918 E19.52131
G1 X117.751 Y50.185 E19.57174
G1 X119.075 Y49.814 E19.64034
G1 X120.399 Y50.185 E19.70894
G1 X121.095 Y50.918 E19.75937
G1 X121.205 Y50.977 E19.7656
G1 X121.329 Y50.959 E19.77185
G1 X121.385 Y50.918 E19.77531
G1 X122.081 Y50.185 E19.82574
G1 X123.405 Y49.814 E19.89434
G1 X124.729 Y50.185 E19.96294
G1 X125.425 Y50.918 E20.01337
G1 X125.535 Y50.977 E20.01959
G1 X125.659 Y50.959 E20.02585
G1 X125.715 Y50.918 E20.02931
G1 X126.411 Y50.185 E20.07974
G1 X127.735 Y49.814 E20.14834
G1 X129.059 Y50.185 E20.21693
G1 X129.755 Y50.918 E20.26736
G1 X129.865 Y50.977 E20.27359
G1 X129.989 Y50.959 E20.27984
G1 X130.045 Y50.918 E20.2833
G1 X130.741 Y50.185 E20.33373
G1 X132.065 Y49.814 E20.40233
G1 X133.389 Y50.185 E20.47093
G1 X134.085 Y50.918 E20.52136
G1 X134.195 Y50.977 E20.52759
G1 X134.319 Y50.959 E20.53384
G1 X134.375 Y50.918 E20.5373
G1 X135.071 Y50.185 E20.58773
G1 X136.395 Y49.814 E20.65633
G1 X137.719 Y50.185 E20.72493
G1 X138.415 Y50.918 E20.77536
G1 X138.525 Y50.977 E20.78158
G1 X138.649 Y50.959 E20.78783
G1 X138.705 Y50.918 E20.7913
G1 X139.401 Y50.185 E20.84173
G1 X140.725 Y49.814 E20.91033
G1 X142.049 Y50.185 E20.97892
G1 X142.745 Y50.918 E21.02935
G1 X142.855 Y50.977 E21.03558
G1 X142.979 Y50.959 E21.04183
G1 X143.035 Y50.918 E21.04529
G1 X143.731 Y50.185 E21.09572
G1 X145.055 Y49.814 E21.16432
G1 X146.379 Y50.185 E21.23292
G1 X147.128 Y50.974 E21.2872
G1 X147.238 Y51.033 E21.29342
G1 X147.362 Y51.015 E21.29967
G1 X147.418 Y50.974 E21.30314
G1 X148.038 Y50.32 E21.3481
G1 X149.284 Y49.972 E21.41264
G1 X150.628 Y50.314 E21.48183
G1 X151.477 Y51.205 E21.54323
G1 X151.794 Y52.363 E21.60313
G1 X151.793 Y52.444 E21.60717
G1 X151.64 Y52.987 E21.63531
G1 X151.641 Y53.097 E21.6408
G1 X151.941 Y54.127 E21.69433
G1 X151.57 Y55.451 E21.76292
G1 X150.865 Y56.157 E21.8127
G1 X150.809 Y56.268 E21.8189
G1 X150.862 Y56.435 E21.82764
G1 X151.569 Y57.182 E21.87896
G1 X151.941 Y58.456 E21.94517
G1 X151.57 Y59.781 E22.01382
G1 X150.865 Y60.487 E22.0636
G1 X150.809 Y60.598 E22.0698
G1 X150.862 Y60.765 E22.07854
G1 X151.569 Y61.512 E22.12985
G1 X151.941 Y62.786 E22.19607
G1 X151.57 Y64.111 E22.26471
G1 X150.865 Y64.817 E22.31449
G1 X150.809 Y64.928 E22.32069
G1 X150.862 Y65.095 E22.32943
G1 X151.569 Y65.842 E22.38075
G1 X151.941 Y67.116 E22.44696
G1 X151.57 Y68.441 E22.51561
G1 X150.865 Y69.147 E22.56539
G1 X150.809 Y69.258 E22.57159
G1 X150.862 Y69.425 E22.58033
G1 X151.569 Y70.172 E22.63164
G1 X151.941 Y71.446 E22.69786
G1 X151.57 Y72.771 E22.7665
G1 X150.865 Y73.477 E22.81628
G1 X150.809 Y73.588 E22.82248
G1 X150.862 Y73.755 E22.83123
G1 X151.569 Y74.502 E22.88254
G1 X151.941 Y75.776 E22.94875
G1 X151.57 Y77.101 E23.0174
G1 X150.865 Y77.807 E23.06718
G1 X150.809 Y77.918 E23.07338
G1 X150.862 Y78.085 E23.08212
G1 X151.569 Y78.832 E23.13343
G1 X151.941 Y80.106 E23.19965
G1 X151.57 Y81.431 E23.26829
G1 X150.865 Y82.137 E23.31807
G1 X150.809 Y82.248 E23.32427
G1 X150.862 Y82.415 E23.33302
G1 X151.569 Y83.162 E23.38433
G1 X151.941 Y84.436 E23.45054
G1 X151.57 Y85.761 E23.51919
G1 X150.865 Y86.467 E23.56897
G1 X150.809 Y86.578 E23.57517
G1 X150.862 Y86.745 E23.58391
G1 X151.569 Y87.492 E23.63522
G1 X151.941 Y88.766 E23.70144
G1 X151.57 Y90.091 E23.77008
G1 X150.865 Y90.797 E23.81986
G1 X150.809 Y90.908 E23.82606
G1 X150.862 Y91.075 E23.83481
G1 X151.569 Y91.822 E23.88612
G1 X151.941 Y93.097 E23.95238
G1 X151.689 Y93.994 E23.99886
G1 X151.69 Y94.104 E24.00435
G1 X151.783 Y94.423 E24.02093
G1 X151.441 Y95.738 E24.08872
G1 X150.601 Y96.577 E24.14795
G1 X149.287 Y96.922 E24.21573
G1 X148.09 Y96.572 E24.27795
G1 X147.445 Y95.928 E24.32342
G1 X147.334 Y95.872 E24.32962
G1 X147.163 Y95.928 E24.3386
G1 X146.382 Y96.708 E24.39367
G1 X145.056 Y97.079 E24.46236
G1 X143.785 Y96.707 E24.52843
G1 X143.06 Y95.983 E24.57955
G1 X142.949 Y95.927 E24.58575
G1 X142.778 Y95.983 E24.59473
G1 X142.052 Y96.707 E24.64588
G1 X140.726 Y97.079 E24.71459
G1 X139.455 Y96.707 E24.78066
G1 X138.73 Y95.983 E24.83178
G1 X138.619 Y95.927 E24.83798
G1 X138.448 Y95.983 E24.84696
G1 X137.722 Y96.707 E24.89811
G1 X136.396 Y97.079 E24.96682
G1 X135.125 Y96.707 E25.03289
G1 X134.4 Y95.983 E25.08401
G1 X134.289 Y95.927 E25.09021
G1 X134.118 Y95.983 E25.09919
G1 X133.392 Y96.707 E25.15034
G1 X132.066 Y97.079 E25.21905
G1 X130.795 Y96.707 E25.28512
G1 X130.07 Y95.983 E25.33624
G1 X129.959 Y95.927 E25.34244
G1 X129.788 Y95.983 E25.35142
G1 X129.062 Y96.707 E25.40257
G1 X127.736 Y97.079 E25.47128
G1 X126.465 Y96.707 E25.53735
G1 X125.74 Y95.983 E25.58847
G1 X125.629 Y95.927 E25.59467
G1 X125.458 Y95.983 E25.60365
G1 X124.732 Y96.707 E25.6548
G1 X123.406 Y97.079 E25.72351
G1 X122.135 Y96.707 E25.78958
G1 X121.41 Y95.983 E25.84069
G1 X121.299 Y95.927 E25.8469
G1 X121.128 Y95.983 E25.85587
G1 X120.402 Y96.707 E25.90703
G1 X119.076 Y97.079 E25.97574
G1 X117.805 Y96.707 E26.04181
G1 X117.08 Y95.983 E26.09292
G1 X116.969 Y95.927 E26.09913
G1 X116.798 Y95.983 E26.1081
G1 X116.072 Y96.707 E26.15926
G1 X114.746 Y97.079 E26.22796
G1 X113.475 Y96.707 E26.29404
G1 X112.75 Y95.983 E26.34515
G1 X112.639 Y95.927 E26.35136
G1 X112.468 Y95.983 E26.36033
G1 X111.742 Y96.707 E26.41149
G1 X110.416 Y97.079 E26.48019
G1 X109.145 Y96.707 E26.54626
G1 X108.42 Y95.983 E26.59738
G1 X108.309 Y95.927 E26.60358
G1 X108.138 Y95.983 E26.61256
G1 X107.412 Y96.707 E26.66371
G1 X106.086 Y97.079 E26.73242
G1 X104.815 Y96.707 E26.79849
G1 X104.09 Y95.983 E26.84961
G1 X103.979 Y95.927 E26.85581
G1 X103.808 Y95.983 E26.86479
G1 X103.082 Y96.707 E26.91594
G1 X101.756 Y97.079 E26.98465
G1 X100.485 Y96.707 E27.05072
G1 X99.76 Y95.983 E27.10184
G1 X99.649 Y95.927 E27.10804
G1 X99.478 Y95.983 E27.11702
G1 X98.752 Y96.707 E27.16817
G1 X97.426 Y97.079 E27.23688
G1 X96.155 Y96.707 E27.30295
G1 X95.43 Y95.983 E27.35407
G1 X95.319 Y95.927 E27.36027
G1 X95.148 Y95.983 E27.36925
G1 X94.422 Y96.707 E27.4204
G1 X93.096 Y97.079 E27.48911
G1 X91.825 Y96.707 E27.55518
G1 X91.1 Y95.983 E27.6063
G1 X90.989 Y95.927 E27.6125
G1 X90.818 Y95.983 E27.62148
G1 X90.092 Y96.707 E27.67263
G1 X88.766 Y97.079 E27.74134
G1 X87.495 Y96.707 E27.80741
G1 X86.77 Y95.983 E27.85853
G1 X86.659 Y95.927 E27.86473
G1 X86.488 Y95.983 E27.87371
G1 X85.762 Y96.707 E27.92486
G1 X84.436 Y97.079 E27.99357
G1 X83.165 Y96.707 E28.05964
G1 X82.44 Y95.983 E28.11075
G1 X82.329 Y95.927 E28.11696
G1 X82.158 Y95.983 E28.12593
G1 X81.432 Y96.707 E28.17709
G1 X80.106 Y97.079 E28.2458
G1 X78.835 Y96.707 E28.31187
G1 X78.755 Y96.629 E28.31744
G1 X78.643 Y96.574 E28.32367
G1 X78.561 Y96.579 E28.32776
G1 X77.333 Y96.923 E28.39139
G1 X76.066 Y96.574 E28.45695
G1 X75.17 Y95.68 E28.5201
G1 X74.829 Y94.439 E28.58431
G1 X74.934 Y94.083 E28.60283
G1 X74.934 Y93.971 E28.60841
G1 X74.677 Y93.095 E28.65396
G1 X75.048 Y91.824 E28.72002
G1 X75.784 Y91.047 E28.77341
G1 X75.837 Y90.934 E28.77964
G1 X75.781 Y90.768 E28.78838
G1 X75.049 Y90.035 E28.84006
G1 X74.677 Y88.765 E28.90608
G1 X75.048 Y87.494 E28.97214
G1 X75.784 Y86.717 E29.02553
G1 X75.837 Y86.604 E29.03176
G1 X75.781 Y86.438 E29.0405
G1 X75.049 Y85.705 E29.09218
G1 X74.677 Y84.435 E29.15821
G1 X75.048 Y83.164 E29.22426
G1 X75.784 Y82.387 E29.27766
G1 X75.837 Y82.274 E29.28388
G1 X75.781 Y82.108 E29.29262
G1 X75.049 Y81.375 E29.34431
G1 X74.677 Y80.105 E29.41033
G1 X75.048 Y78.834 E29.47639
G1 X75.784 Y78.057 E29.52978
G1 X75.837 Y77.944 E29.53601
G1 X75.781 Y77.778 E29.54475
G1 X75.049 Y77.045 E29.59643
G1 X74.677 Y75.775 E29.66245
G1 X75.048 Y74.504 E29.72851
G1 X75.784 Y73.727 E29.7819
G1 X75.837 Y73.614 E29.78813
G1 X75.781 Y73.448 E29.79687
G1 X75.049 Y72.715 E29.84855
G1 X74.677 Y71.445 E29.91458
G1 X75.048 Y70.174 E29.98063
G1 X75.784 Y69.397 E30.03403
G1 X75.837 Y69.284 E30.04025
G1 X75.781 Y69.118 E30.04899
G1 X75.049 Y68.385 E30.10068
G1 X74.677 Y67.115 E30.1667
G1 X75.048 Y65.844 E30.23276
G1 X75.784 Y65.067 E30.28615
G1 X75.837 Y64.954 E30.29238
G1 X75.781 Y64.788 E30.30112
G1 X75.049 Y64.055 E30.3528
G1 X74.677 Y62.785 E30.41882
G1 X75.048 Y61.514 E30.48488
G1 X75.784 Y60.737 E30.53827
G1 X75.837 Y60.624 E30.5445
G1 X75.781 Y60.458 E30.55324
G1 X75.049 Y59.725 E30.60492
